X: 1
T: The Claverhouse Reel
C: Jimmy Shand
R: reel
B: Jimmy Shand, Scottish Dance Album Book 2 (1953) Pub. James S.Kerr, Glasgow
Z: John Chambers <jc:trillian.mit.edu>
M: 2/4
L: 1/16
K: G
|: D \
| "G"G2GA B2Bc | dedc BcBA | "Em"G2GA "G"BAGB | d2B2 B2g2 |
| "G"G2GA BGBd | "C"edcB AGFE | "D"DEFG AB"D7"cA | "G"B2G2G2 :|
|: d2 \
| "G"g2gd BGBd | "C"edcB "D7"A2d2 | "G"g2gd BGBd | B2d2d2 (3def |
| "G"g2gd BGBd | "C"edcB AGFE | "D"DEFG "D7"ABcA | "G"B2G2G2 :|

%%sep 1 1 500

